icons/desktop/16/svg/fx-view-16.svg

<svg width="16" height="16" viewBox="0 0 16 16" fill="none" xmlns="http://www.w3.org/2000/svg">
<g clip-path="url(#clip0_8069_32714)">
<path d="M9.25 8.00043C9.66421 8.00043 10 8.33622 10 8.75043C9.99974 9.16442 9.66405 9.50043 9.25 9.50043H6.75C6.33595 9.50043 6.00026 9.16442 6 8.75043C6 8.33622 6.33579 8.00043 6.75 8.00043H9.25Z" fill="black"/>
<path fill-rule="evenodd" clip-rule="evenodd" d="M8 4.00043C9.4553 4.00043 11.0559 4.05927 12.7773 4.21332L13.5225 4.28559L13.7812 4.32465C15.0524 4.57931 16 5.6993 16 7.02582V12.975C15.9998 14.3743 14.9512 15.5658 13.5459 15.7123C11.8585 15.8878 10.0011 16.0004 8 16.0004C6.33684 16.0004 4.48371 15.9232 2.47754 15.7153C1.07843 15.57 0.000248002 14.3899 0 12.975V7.02582C0 5.62633 1.04868 4.4351 2.4541 4.28852C4.14156 4.11308 5.99888 4.00043 8 4.00043ZM8 5.50043C6.05512 5.50043 4.24992 5.61014 2.60938 5.7807C1.98112 5.84642 1.5 6.38154 1.5 7.02582V12.975C1.50025 13.6137 1.99026 14.1564 2.63281 14.2231C4.58242 14.4251 6.38331 14.5004 8 14.5004C9.94485 14.5004 11.7501 14.3907 13.3906 14.2202C14.0187 14.1545 14.4998 13.6191 14.5 12.975V7.02582C14.5 6.38697 14.0099 5.84452 13.3672 5.77777C11.4176 5.57573 9.6167 5.50043 8 5.50043Z" fill="black"/>
<path d="M4.41602 1.10004C6.80301 0.799041 9.24124 0.800946 11.6152 1.10395C12.689 1.24201 13.5462 2.0057 13.8623 2.99945H12.1846C11.9926 2.78271 11.7276 2.63218 11.4248 2.5932C9.17485 2.30622 6.86447 2.3043 4.60352 2.5893C4.29241 2.62832 4.02004 2.78036 3.82324 2.99848H2.14062C2.46071 2.00363 3.32813 1.23803 4.41602 1.10004Z" fill="black"/>
</g>
<defs>
<clipPath id="clip0_8069_32714">
<rect width="16" height="16" fill="white"/>
</clipPath>
</defs>
</svg>

<!-- This Source Code Form is subject to the terms of the Mozilla Public
   - License, v. 2.0. If a copy of the MPL was not distributed with this
   - file, You can obtain one at http://mozilla.org/MPL/2.0/. -->
<svg xmlns="http://www.w3.org/2000/svg" width="16" height="16" fill="context-fill" fill-opacity="context-fill-opacity" viewBox="0 0 16 16">
    <g clip-path="url(#clip0_8069_32714)">
        <path d="M9.25 8a.75.75 0 0 1 0 1.5h-2.5a.75.75 0 0 1 0-1.5z" />
        <path fill-rule="evenodd" d="M8 4c1.455 0 3.056.06 4.777.213l.746.073.258.039A2.76 2.76 0 0 1 16 7.025v5.95c0 1.4-1.049 2.59-2.454 2.737a53.6 53.6 0 0 1-11.068.003A2.76 2.76 0 0 1 0 12.975v-5.95c0-1.399 1.049-2.59 2.454-2.736A54 54 0 0 1 8 4m0 1.5c-1.945 0-3.75.11-5.39.28-.629.066-1.11.602-1.11 1.246v5.949c0 .639.49 1.181 1.133 1.248a52 52 0 0 0 10.758-.003 1.246 1.246 0 0 0 1.109-1.245v-5.95c0-.638-.49-1.18-1.133-1.247A52 52 0 0 0 8 5.5" clip-rule="evenodd" />
        <path d="M4.416 1.1c2.387-.301 4.825-.3 7.2.004a2.74 2.74 0 0 1 2.246 1.895h-1.677a1.22 1.22 0 0 0-.76-.406 27.2 27.2 0 0 0-6.821-.004 1.26 1.26 0 0 0-.78.41H2.14A2.76 2.76 0 0 1 4.416 1.1" />
    </g>
</svg>
